X:3089
T:John Stenson's #1
O:england
R:reel
D:Kevin Burke: If the Cap Fits
M:C|
K:Bm
fBBA Bcde|fBBA ~d3e|fBBA Bcde|1 faaf e2de:|2 fdaf eABc||
d2fd adfd|abaf edBc|d2fd adfd|1 abaf ~e3f:|2 abaf ~e3g||


